svg/Outline/play-skip-forward-circle.svg

<svg viewBox="0 0 24 24" xmlns="http://www.w3.org/2000/svg" width="24" height="24"><path d="M9 7.3c.32-.03.6.09.82.2q.35.18.8.48l3.79 2.4.36.23V8.44a1 1 0 1 1 2 0v7.23a1 1 0 0 1-2 0v-2.28l-.36.23-3.78 2.4q-.46.3-.81.48a1.4 1.4 0 0 1-1.86-.37 1.5 1.5 0 0 1-.26-.8q-.02-.38-.02-.93V9.6q0-.54.02-.94c.02-.24.08-.54.26-.79.25-.33.63-.54 1.05-.57"/><path fill-rule="evenodd" d="M12 1A11 11 0 1 1 12 23A11 11 0 0 1 12 1M12 2.5A9.5 9.5 0 1 0 12 21.5A9.5 9.5 0 0 0 12 2.5" clip-rule="evenodd"/></svg>

<svg viewBox="0 0 24 24" xmlns="http://www.w3.org/2000/svg" width="24" height="24"><path d="M9 7.3C9.32 7.27 9.6 7.39 9.82 7.5Q10.17 7.68 10.62 7.98L14.77 10.61L14.77 8.44A1 1 0 1 1 16.77 8.44L16.77 15.67A1 1 0 0 1 14.77 15.67L14.77 13.39L10.63 16.02Q10.17 16.32 9.82 16.5A1.4 1.4 0 0 1 7.96 16.13A1.5 1.5 0 0 1 7.7 15.33Q7.68 14.95 7.68 14.4L7.68 9.6Q7.68 9.06 7.7 8.66C7.72 8.42 7.78 8.12 7.96 7.87C8.21 7.54 8.59 7.33 9.01 7.3"/><path fill-rule="evenodd" d="M12 1A11 11 0 1 1 12 23A11 11 0 0 1 12 1M12 2.5A9.5 9.5 0 1 0 12 21.5A9.5 9.5 0 0 0 12 2.5" clip-rule="evenodd"/></svg>
